; generated by PrusaSlicer 2.6.0+win64 on 2023-09-07 at 13:13:59 UTC

; 

; external perimeters extrusion width = 0.45mm
; perimeters extrusion width = 0.45mm
; infill extrusion width = 0.45mm
; solid infill extrusion width = 0.45mm
; top infill extrusion width = 0.40mm
; first layer extrusion width = 0.36mm

; external perimeters extrusion width = 0.45mm
; perimeters extrusion width = 0.45mm
; infill extrusion width = 0.45mm
; solid infill extrusion width = 0.45mm
; top infill extrusion width = 0.40mm
; first layer extrusion width = 0.36mm

M201 X500 Y500 Z100 E5000 ; sets maximum accelerations, mm/sec^2
M203 X500 Y500 Z10 E60 ; sets maximum feedrates, mm / sec
M204 S500 T1000 ; sets acceleration (S) and retract acceleration (R), mm/sec^2
M205 X8.00 Y8.00 Z0.40 E5.00 ; sets the jerk limits, mm/sec
M205 S0 T0 ; sets the minimum extruding and travel feed rate, mm/sec
;TYPE:Custom
G90 ; use absolute coordinates
M83 ; extruder relative mode
M104 S150 ; set temporary nozzle temp to prevent oozing during homing
M140 S70 ; set final bed temp
G4 S30 ; allow partial nozzle warmup
G28 ; home all axis
G29 ; auto bed levelling
G1 Z50 F240
G1 X2.0 Y10 F3000
M104 S200 ; set final nozzle temp
M190 S70 ; wait for bed temp to stabilize
M109 S200 ; wait for nozzle temp to stabilize
G1 Z0.28 F240
G92 E0
G1 X2.0 Y140 E10 F1500 ; prime the nozzle
G1 X2.3 Y140 F5000
G92 E0
G1 X2.3 Y10 E10 F1200 ; prime the nozzle
G92 E0
G21 ; set units to millimeters
G90 ; use absolute coordinates
M83 ; use relative distances for extrusion
; Filament gcode
M107
;LAYER_CHANGE
;Z:0.18
;HEIGHT:0.18
;BEFORE_LAYER_CHANGE
G92 E0
;0.18


G1 E-5 F3600
G1 Z.4 F7800
;AFTER_LAYER_CHANGE
;0.18
G1 X80.712 Y63.803
G1 Z.18
G1 E5 F2400
;TYPE:Skirt/Brim
;WIDTH:0.36
G1 F1800
G1 X81.879 Y62.637 E.03967
G1 X83.121 Y61.683 E.03766
G1 X84.551 Y60.858 E.0397
G1 X85.998 Y60.259 E.03766
G1 X87.592 Y59.832 E.03969
G1 X89.97 Y59.573 E.05753
G1 X130.03 Y59.573 E.96344
G1 X130.855 Y59.627 E.01988
G1 X132.408 Y59.832 E.03767
G1 X134.002 Y60.259 E.03969
G1 X135.449 Y60.858 E.03766
G1 X136.879 Y61.683 E.0397
G1 X138.121 Y62.637 E.03766
G1 X139.288 Y63.804 E.03969
G1 X140.701 Y65.734 E.05753
G1 X145.671 Y74.341 E.23903
G1 X146.636 Y76.53 E.05753
G1 X147.063 Y78.124 E.03969
G1 X147.321 Y80.502 E.05753
G1 X147.321 Y158.334 E1.87186
G1 X147.063 Y160.712 E.05753
G1 X146.636 Y162.306 E.03969
G1 X145.671 Y164.495 E.05753
G1 X140.124 Y174.103 E.26682
G1 X139.664 Y174.79 E.01988
G1 X138.711 Y176.033 E.03767
G1 X137.544 Y177.2 E.03969
G1 X136.301 Y178.153 E.03767
G1 X134.872 Y178.978 E.03968
G1 X133.425 Y179.578 E.03767
G1 X131.831 Y180.005 E.03969
G1 X129.467 Y180.262 E.05719
G1 X90.547 Y180.263 E.93602
G1 X88.169 Y180.005 E.05753
G1 X86.575 Y179.578 E.03969
G1 X85.141 Y178.984 E.03733
G1 X83.723 Y178.168 E.03935
G1 X82.468 Y177.209 E.03799
G1 X81.289 Y176.033 E.04005
G1 X80.344 Y174.801 E.03734
G1 X79.885 Y174.115 E.01985
G1 X74.33 Y164.496 E.26714
G1 X73.964 Y163.753 E.01992
G1 X73.364 Y162.306 E.03767
G1 X72.937 Y160.712 E.03969
G1 X72.735 Y159.173 E.03733
G1 X72.68 Y158.348 E.01989
G1 X72.679 Y80.502 E1.87219
G1 X72.937 Y78.124 E.05753
G1 X73.364 Y76.53 E.03969
G1 X74.329 Y74.341 E.05753
G1 X78.852 Y66.508 E.21753
G1 X79.758 Y65.046 E.04137
G1 X80.675 Y63.851 E.03623
G1 E-3.5 F3600
;WIPE_START
G1 F6240
G1 X81.879 Y62.637 E-.9371
G1 X82.693 Y62.011 E-.5629
;WIPE_END
G1 Z.58 F7800
G1 X133.939 Y85.692
G1 Z.18
G1 E5 F2400
;TYPE:Perimeter
;WIDTH:0.359999
G1 F1800
G1 X133.785 Y85.696 E.0037
G1 X133.554 Y85.795 E.00604
G1 X133.358 Y85.968 E.00629
G1 X133.234 Y86.179 E.00589
G1 X133.177 Y86.475 E.00725
G1 X133.177 Y107.014 E.49396
G1 X133.247 Y107.34 E.00802
G1 X133.453 Y107.62 E.00836
G1 X133.666 Y107.753 E.00604
G1 X133.981 Y107.817 E.00773
G1 X140.177 Y107.817 E.14901
G1 X140.177 Y109.597 E.04281
G1 X140.177 Y111.83 E.0537
G1 X139.914 Y113.491 E.04044
G1 X139.18 Y114.931 E.03887
G1 X138.037 Y116.075 E.03889
G1 X136.597 Y116.808 E.03886
G1 X134.935 Y117.072 E.04047
G1 X113.29 Y117.072 E.52056
;WIDTH:0.363
G1 X111.689 Y117.067 E.03886
G1 X111.814 Y117.025 E.0032
G1 X113.118 Y116.356 E.03558
;WIDTH:0.359999
G1 X113.322 Y116.208 E.00606
G1 X114.358 Y115.172 E.03524
G1 X114.506 Y114.968 E.00606
G1 X115.171 Y113.662 E.03525
G1 X115.249 Y113.423 E.00605
G1 X115.478 Y111.976 E.03523
G1 X115.478 Y111.724 E.00606
G1 X115.249 Y110.277 E.03523
G1 X115.171 Y110.038 E.00605
G1 X114.506 Y108.732 E.03525
G1 X114.358 Y108.528 E.00606
G1 X113.322 Y107.492 E.03524
G1 X113.118 Y107.344 E.00606
G1 X111.812 Y106.679 E.03525
G1 X111.573 Y106.601 E.00605
G1 X110.126 Y106.372 E.03523
G1 X109.874 Y106.372 E.00606
G1 X108.427 Y106.601 E.03523
G1 X108.188 Y106.679 E.00605
G1 X106.882 Y107.344 E.03525
G1 X106.678 Y107.492 E.00606
G1 X105.642 Y108.528 E.03524
G1 X105.494 Y108.732 E.00606
G1 X104.829 Y110.038 E.03525
G1 X104.751 Y110.277 E.00605
G1 X104.522 Y111.724 E.03523
G1 X104.522 Y111.976 E.00606
G1 X104.751 Y113.423 E.03523
G1 X104.829 Y113.662 E.00605
G1 X105.494 Y114.968 E.03525
G1 X105.642 Y115.172 E.00606
G1 X106.678 Y116.208 E.03524
G1 X106.882 Y116.356 E.00606
;WIDTH:0.363108
G1 X108.186 Y117.025 E.03559
G1 X108.314 Y117.067 E.00327
G1 X106.71 Y117.072 E.03895
;WIDTH:0.359999
G1 X85.065 Y117.072 E.52056
G1 X83.403 Y116.808 E.04047
G1 X81.963 Y116.075 E.03886
G1 X80.82 Y114.931 E.03889
G1 X80.086 Y113.491 E.03887
G1 X79.823 Y111.83 E.04044
G1 X79.823 Y80.556 E.75214
G1 X80.006 Y79.164 E.03377
G1 X80.543 Y77.867 E.03376
G1 X85.459 Y69.352 E.23646
G1 X86.314 Y68.239 E.03375
G1 X87.385 Y67.417 E.03247
G1 X88.632 Y66.9 E.03247
G1 X90.024 Y66.717 E.03377
G1 X129.976 Y66.717 E.96084
G1 X131.368 Y66.9 E.03377
G1 X132.615 Y67.417 E.03247
G1 X133.686 Y68.239 E.03247
G1 X134.541 Y69.352 E.03375
G1 X139.457 Y77.867 E.23646
G1 X139.994 Y79.164 E.03376
G1 X140.177 Y80.556 E.03377
G1 X140.177 Y85.672 E.12304
G1 X134.86 Y85.672 E.12787
G1 X133.999 Y85.691 E.02071
G1 X133.962 Y86.006 F7800
G1 F1800
G1 X133.863 Y86.008 E.00238
G1 X133.691 Y86.09 E.00458
G1 X133.533 Y86.297 E.00626
G1 X133.499 Y86.475 E.00436
G1 X133.499 Y107.014 E.49396
G1 X133.554 Y107.238 E.00555
G1 X133.718 Y107.418 E.00586
G1 X133.981 Y107.496 E.0066
G1 X140.499 Y107.496 E.15676
G1 X140.499 Y109.597 E.05053
G1 X140.499 Y111.855 E.0543
G1 X140.224 Y113.592 E.04229
G1 X139.443 Y115.123 E.04133
G1 X138.228 Y116.338 E.04132
G1 X136.697 Y117.118 E.04132
G1 X134.961 Y117.393 E.04227
G1 X113.29 Y117.393 E.52119
;WIDTH:0.363
G1 X111.824 Y117.392 E.03559
;WIDTH:0.41137
G1 X111.744 Y117.367 E.00234
;WIDTH:0.45974
G1 X111.664 Y117.343 E.00263
;WIDTH:0.508109
G1 X111.584 Y117.319 E.00293
G1 X111.091 Y117.338 E.01733
;WIDTH:0.469298
G1 X110.598 Y117.358 E.0159
;WIDTH:0.430486
G1 X110.106 Y117.377 E.01444
;WIDTH:0.391674
G1 X109.894 Y117.377 E.0056
;WIDTH:0.430124
G1 X109.406 Y117.358 E.01431
;WIDTH:0.468574
G1 X108.917 Y117.339 E.01575
;WIDTH:0.507024
G1 X108.429 Y117.319 E.01712
G1 X108.344 Y117.343 E.0031
;WIDTH:0.459052
G1 X108.26 Y117.367 E.00275
;WIDTH:0.41108
G1 X108.176 Y117.391 E.00243
;WIDTH:0.363108
G1 X106.71 Y117.393 E.0356
;WIDTH:0.359999
G1 X85.039 Y117.393 E.52119
G1 X83.303 Y117.118 E.04227
G1 X81.772 Y116.338 E.04132
G1 X80.557 Y115.123 E.04132
G1 X79.776 Y113.592 E.04133
G1 X79.501 Y111.855 E.04229
G1 X79.501 Y80.535 E.75324
G1 X79.693 Y79.08 E.0353
G1 X80.254 Y77.724 E.03529
G1 X85.191 Y69.174 E.23745
G1 X86.085 Y68.009 E.03532
G1 X87.223 Y67.136 E.03449
G1 X88.548 Y66.587 E.03449
G1 X90.003 Y66.396 E.03529
G1 X129.997 Y66.396 E.96185
G1 X131.452 Y66.587 E.03529
G1 X132.778 Y67.136 E.03452
G1 X133.915 Y68.009 E.03448
G1 X134.809 Y69.174 E.03532
G1 X139.746 Y77.724 E.23745
G1 X140.307 Y79.08 E.03529
G1 X140.499 Y80.535 E.0353
G1 X140.499 Y85.993 E.13126
G1 X134.022 Y86.005 E.15577
G1 X133.981 Y86.314 F7800
;TYPE:External perimeter
G1 F1800
G1 X133.884 Y86.347 E.00246
G1 X133.82 Y86.475 E.00344
G1 X133.82 Y107.014 E.49396
G1 X133.856 Y107.115 E.00258
G1 X133.981 Y107.174 E.00332
G1 X140.82 Y107.174 E.16448
G1 X140.82 Y111.88 E.11318
G1 X140.533 Y113.692 E.04412
G1 X139.707 Y115.314 E.04378
G1 X138.42 Y116.601 E.04377
G1 X136.798 Y117.427 E.04378
G1 X134.986 Y117.714 E.04412
G1 X85.014 Y117.714 E1.20182
G1 X83.202 Y117.427 E.04412
G1 X81.58 Y116.601 E.04378
G1 X80.293 Y115.314 E.04377
G1 X79.467 Y113.692 E.04378
G1 X79.18 Y111.88 E.04412
G1 X79.18 Y80.514 E.75435
G1 X79.38 Y78.996 E.03682
G1 X79.966 Y77.582 E.03681
G1 X84.923 Y68.995 E.23846
G1 X85.855 Y67.78 E.03683
G1 X87.06 Y66.855 E.03653
G1 X88.464 Y66.274 E.03654
G1 X89.981 Y66.074 E.0368
G1 X130.019 Y66.074 E.96291
G1 X131.536 Y66.274 E.0368
G1 X132.94 Y66.855 E.03654
G1 X134.145 Y67.78 E.03653
G1 X135.077 Y68.995 E.03683
G1 X140.034 Y77.582 E.23846
G1 X140.62 Y78.996 E.03681
G1 X140.82 Y80.514 E.03682
G1 X140.82 Y86.314 E.13949
G1 X134.041 Y86.314 E.16303
G1 X133.897 Y86.257 F7800
G1 E-3.5 F3600
;WIPE_START
G1 F6240
G1 X133.884 Y86.347 E-.08793
G1 X133.82 Y86.475 E-.07843
G1 X133.82 Y88.908 E-1.33364
;WIPE_END
G1 Z.58 F7800
G1 X133.662 Y113.782
G1 Z.18
G1 E5 F2400
;TYPE:Perimeter
G1 F1800
G1 X133.539 Y113.692 E.00367
G1 X133.203 Y113.356 E.01143
G1 X133.055 Y113.152 E.00606
G1 X132.789 Y112.605 E.01463
G1 X132.687 Y112.02 E.01428
G1 X132.687 Y111.769 E.00604
G1 X132.776 Y111.227 E.01321
G1 X133.055 Y110.636 E.01572
G1 X133.203 Y110.433 E.00604
G1 X133.624 Y110.023 E.01413
G1 X134.166 Y109.733 E.01478
G1 X134.405 Y109.656 E.00604
G1 X134.958 Y109.578 E.01343
G1 X135.575 Y109.653 E.01495
G1 X135.834 Y109.733 E.00652
G1 X136.258 Y109.949 E.01144
G1 X136.461 Y110.097 E.00604
G1 X136.904 Y110.564 E.01548
G1 X137.161 Y111.06 E.01343
G1 X137.239 Y111.299 E.00605
G1 X137.32 Y111.831 E.01294
G1 X137.239 Y112.49 E.01597
G1 X137.161 Y112.729 E.00605
G1 X136.879 Y113.26 E.01446
G1 X136.461 Y113.692 E.01446
G1 X136.258 Y113.84 E.00604
G1 X135.718 Y114.104 E.01446
G1 X135.126 Y114.207 E.01445
G1 X134.874 Y114.207 E.00606
G1 X134.405 Y114.133 E.01142
G1 X134.166 Y114.055 E.00605
G1 X133.711 Y113.817 E.01235
G1 X133.83 Y113.5 F7800
G1 F1800
G1 X133.43 Y113.128 E.01314
G1 X133.125 Y112.583 E.01502
G1 X133.004 Y111.97 E.01503
G1 X133.079 Y111.349 E.01504
G1 X133.341 Y110.782 E.01502
G1 X133.766 Y110.324 E.01503
G1 X134.312 Y110.02 E.01503
G1 X134.883 Y109.905 E.01401
G1 X135.533 Y109.971 E.01571
G1 X136.112 Y110.236 E.01531
G1 X136.57 Y110.66 E.01501
G1 X136.875 Y111.206 E.01504
G1 X136.996 Y111.819 E.01503
G1 X136.921 Y112.439 E.01502
G1 X136.659 Y113.006 E.01502
G1 X136.234 Y113.465 E.01504
G1 X135.688 Y113.769 E.01503
G1 X135.075 Y113.89 E.01503
G1 X134.455 Y113.816 E.01502
G1 X133.874 Y113.54 E.01547
G1 X134.034 Y113.267 F7800
;TYPE:External perimeter
G1 F1800
G1 X133.657 Y112.901 E.01264
G1 X133.412 Y112.437 E.01262
G1 X133.322 Y111.92 E.01262
G1 X133.396 Y111.4 E.01263
G1 X133.627 Y110.928 E.01264
G1 X133.993 Y110.551 E.01264
G1 X134.457 Y110.306 E.01262
G1 X134.958 Y110.221 E.01222
G1 X135.49 Y110.29 E.0129
G1 X135.966 Y110.522 E.01274
G1 X136.343 Y110.888 E.01264
G1 X136.588 Y111.352 E.01262
G1 X136.678 Y111.869 E.01262
G1 X136.604 Y112.389 E.01263
G1 X136.373 Y112.86 E.01262
G1 X136.007 Y113.237 E.01264
G1 X135.543 Y113.483 E.01263
G1 X135.025 Y113.573 E.01264
G1 X134.505 Y113.498 E.01264
G1 X134.088 Y113.293 E.01118
G1 X133.671 Y113.435 F7800
G1 E-3.5 F3600
;WIPE_START
G1 F6240
G1 X133.657 Y112.901 E-.31931
G1 X133.412 Y112.437 E-.28758
G1 X133.322 Y111.92 E-.28762
G1 X133.396 Y111.4 E-.28787
G1 X133.627 Y110.928 E-.28801
G1 X133.665 Y110.889 E-.02961
;WIPE_END
G1 Z.58 F7800
G1 X114.159 Y108.794
G1 Z.18
G1 E5 F2400
;TYPE:Perimeter
G1 F1800
G1 X114.219 Y108.878 E.00248
G1 X114.885 Y110.184 E.03526
G1 X114.931 Y110.327 E.00361
G1 X115.161 Y111.775 E.03526
G1 X115.161 Y111.925 E.00361
G1 X114.931 Y113.373 E.03526
G1 X114.885 Y113.516 E.00361
G1 X114.219 Y114.822 E.03526
G1 X114.131 Y114.944 E.00362
G1 X113.094 Y115.981 E.03527
G1 X112.972 Y116.069 E.00362
;WIDTH:0.363
G1 X111.667 Y116.736 E.03558
;WIDTH:0.411008
G1 X111.623 Y116.775 E.00164
;WIDTH:0.459016
G1 X111.579 Y116.815 E.00187
;WIDTH:0.507023
G1 X111.535 Y116.854 E.00206
G1 X111.049 Y116.911 E.01715
;WIDTH:0.468574
G1 X110.563 Y116.969 E.01575
;WIDTH:0.430124
G1 X110.078 Y117.026 E.01431
;WIDTH:0.391674
G1 X109.922 Y117.026 E.00412
;WIDTH:0.430124
G1 X109.437 Y116.969 E.01431
;WIDTH:0.468574
G1 X108.951 Y116.911 E.01575
;WIDTH:0.507024
G1 X108.465 Y116.854 E.01715
G1 X108.421 Y116.815 E.00206
;WIDTH:0.459052
G1 X108.377 Y116.775 E.00187
;WIDTH:0.41108
G1 X108.333 Y116.736 E.00164
;WIDTH:0.363108
G1 X107.028 Y116.069 E.03559
;WIDTH:0.359999
G1 X106.906 Y115.981 E.00362
G1 X105.869 Y114.944 E.03527
G1 X105.781 Y114.822 E.00362
G1 X105.115 Y113.516 E.03526
G1 X105.069 Y113.373 E.00361
G1 X104.839 Y111.925 E.03526
G1 X104.839 Y111.775 E.00361
G1 X105.069 Y110.327 E.03526
G1 X105.448 Y109.531 E.0212
G1 X105.781 Y108.878 E.01763
G1 X106.387 Y108.237 E.02121
G1 X106.963 Y107.67 E.01944
G1 X108.334 Y106.965 E.03708
G1 X109.925 Y106.689 E.03883
G1 X110.799 Y106.804 E.0212
G1 X111.523 Y106.919 E.01763
G1 X112.972 Y107.631 E.03883
G1 X113.094 Y107.719 E.00362
G1 X114.122 Y108.747 E.03496
G1 X113.904 Y108.983 F7800
;TYPE:External perimeter
G1 F1800
G1 X114.598 Y110.329 E.03642
G1 X114.843 Y111.875 E.03765
G1 X114.614 Y113.323 E.03526
G1 X113.933 Y114.676 E.03643
G1 X112.867 Y115.753 E.03644
G1 X111.521 Y116.448 E.03643
G1 X109.975 Y116.693 E.03765
G1 X108.527 Y116.464 E.03526
G1 X107.174 Y115.783 E.03643
G1 X106.096 Y114.717 E.03646
G1 X105.402 Y113.371 E.03642
G1 X105.157 Y111.825 E.03765
G1 X105.386 Y110.377 E.03526
G1 X106.067 Y109.024 E.03643
G1 X107.152 Y107.93 E.03706
G1 X108.479 Y107.252 E.03584
G1 X109.975 Y107.007 E.03646
G1 X110.749 Y107.121 E.01882
G1 X111.473 Y107.236 E.01763
G1 X112.826 Y107.917 E.03643
G1 X113.861 Y108.94 E.035
G1 X114.301 Y108.939 F7800
G1 E-3.5 F3600
;WIPE_START
G1 F6240
G1 X114.598 Y110.329 E-.8618
G1 X114.78 Y111.479 E-.6382
;WIPE_END
G1 Z.58 F7800
G1 X84.966 Y114.203
G1 Z.18
G1 E5 F2400
;TYPE:Perimeter
G1 F1800
G1 X84.405 Y114.133 E.0136
G1 X84.166 Y114.055 E.00605
G1 X83.635 Y113.774 E.01445
G1 X83.203 Y113.356 E.01446
G1 X83.055 Y113.152 E.00606
G1 X82.791 Y112.612 E.01446
G1 X82.687 Y112.02 E.01446
G1 X82.687 Y111.769 E.00604
G1 X82.761 Y111.299 E.01144
G1 X82.839 Y111.06 E.00605
G1 X83.055 Y110.636 E.01144
G1 X83.203 Y110.433 E.00604
G1 X83.539 Y110.097 E.01143
G1 X83.742 Y109.949 E.00604
G1 X84.289 Y109.683 E.01463
G1 X84.832 Y109.588 E.01326
G1 X85.063 Y109.585 E.00556
G1 X85.575 Y109.653 E.01242
G1 X85.782 Y109.709 E.00516
G1 X86.258 Y109.949 E.01282
G1 X86.461 Y110.097 E.00604
G1 X86.83 Y110.468 E.01258
G1 X87.161 Y111.06 E.01631
G1 X87.239 Y111.299 E.00605
G1 X87.323 Y111.884 E.01421
G1 X87.239 Y112.49 E.01471
G1 X87.161 Y112.729 E.00605
G1 X86.945 Y113.152 E.01142
G1 X86.797 Y113.356 E.00606
G1 X86.461 Y113.692 E.01143
G1 X86.258 Y113.84 E.00604
G1 X85.608 Y114.131 E.01713
G1 X85.026 Y114.21 E.01413
G1 X84.997 Y113.881 F7800
G1 F1800
G1 X84.455 Y113.816 E.01313
G1 X83.888 Y113.553 E.01503
G1 X83.43 Y113.128 E.01503
G1 X83.125 Y112.583 E.01502
G1 X83.004 Y111.97 E.01503
G1 X83.079 Y111.349 E.01504
G1 X83.341 Y110.782 E.01502
G1 X83.766 Y110.324 E.01503
G1 X84.312 Y110.02 E.01503
G1 X84.883 Y109.905 E.01401
G1 X85.533 Y109.971 E.01571
G1 X85.657 Y110.005 E.00309
G1 X86.112 Y110.236 E.01227
G1 X86.57 Y110.66 E.01501
G1 X86.875 Y111.206 E.01504
G1 X86.996 Y111.819 E.01503
G1 X86.921 Y112.439 E.01502
G1 X86.659 Y113.006 E.01502
G1 X86.234 Y113.465 E.01504
G1 X85.688 Y113.769 E.01503
G1 X85.056 Y113.888 E.01547
G1 X85.023 Y113.572 F7800
;TYPE:External perimeter
G1 F1800
G1 X84.505 Y113.498 E.01258
G1 X84.034 Y113.267 E.01262
G1 X83.657 Y112.901 E.01264
G1 X83.412 Y112.437 E.01262
G1 X83.322 Y111.92 E.01262
G1 X83.396 Y111.4 E.01263
G1 X83.627 Y110.928 E.01264
G1 X83.993 Y110.551 E.01264
G1 X84.457 Y110.306 E.01262
G1 X84.958 Y110.221 E.01222
G1 X85.532 Y110.301 E.01394
G1 X85.98 Y110.53 E.0121
G1 X86.343 Y110.888 E.01226
G1 X86.588 Y111.352 E.01262
G1 X86.678 Y111.869 E.01262
G1 X86.604 Y112.389 E.01263
G1 X86.373 Y112.86 E.01262
G1 X86.007 Y113.237 E.01264
G1 X85.543 Y113.483 E.01263
